images/3234798.svg

<?xml version="1.0" encoding="UTF-8"?>
<svg xmlns="http://www.w3.org/2000/svg" xmlns:xlink="http://www.w3.org/1999/xlink" width="300pt" height="300pt" viewBox="0 0 300 300" version="1.1">
<defs>
<g>
<symbol overflow="visible" id="glyph0-0">
<path style="stroke:none;" d="M 0.453125 1.59375 L 0.453125 -6.34375 L 4.953125 -6.34375 L 4.953125 1.59375 Z M 0.953125 1.09375 L 4.453125 1.09375 L 4.453125 -5.84375 L 0.953125 -5.84375 Z M 0.953125 1.09375 "/>
</symbol>
<symbol overflow="visible" id="glyph0-1">
<path style="stroke:none;" d="M 0.890625 -6.5625 L 2.078125 -6.5625 L 4.984375 -1.078125 L 4.984375 -6.5625 L 5.84375 -6.5625 L 5.84375 0 L 4.65625 0 L 1.75 -5.484375 L 1.75 0 L 0.890625 0 Z M 0.890625 -6.5625 "/>
</symbol>
<symbol overflow="visible" id="glyph0-2">
<path style="stroke:none;" d="M 3.546875 -5.953125 C 2.898438 -5.953125 2.382812 -5.710938 2 -5.234375 C 1.625 -4.753906 1.4375 -4.101562 1.4375 -3.28125 C 1.4375 -2.445312 1.625 -1.789062 2 -1.3125 C 2.382812 -0.832031 2.898438 -0.59375 3.546875 -0.59375 C 4.191406 -0.59375 4.703125 -0.832031 5.078125 -1.3125 C 5.453125 -1.789062 5.640625 -2.445312 5.640625 -3.28125 C 5.640625 -4.101562 5.453125 -4.753906 5.078125 -5.234375 C 4.703125 -5.710938 4.191406 -5.953125 3.546875 -5.953125 Z M 3.546875 -6.6875 C 4.460938 -6.6875 5.195312 -6.375 5.75 -5.75 C 6.300781 -5.132812 6.578125 -4.3125 6.578125 -3.28125 C 6.578125 -2.238281 6.300781 -1.410156 5.75 -0.796875 C 5.195312 -0.179688 4.460938 0.125 3.546875 0.125 C 2.617188 0.125 1.878906 -0.179688 1.328125 -0.796875 C 0.773438 -1.410156 0.5 -2.238281 0.5 -3.28125 C 0.5 -4.3125 0.773438 -5.132812 1.328125 -5.75 C 1.878906 -6.375 2.617188 -6.6875 3.546875 -6.6875 Z M 3.546875 -6.6875 "/>
</symbol>
</g>
</defs>
<g id="surface38865">
<rect x="0" y="0" width="300" height="300" style="fill:rgb(100%,100%,100%);fill-opacity:1;stroke:none;"/>
<path style="fill:none;stroke-width:1.2;stroke-linecap:butt;stroke-linejoin:miter;stroke:rgb(0%,0%,0%);stroke-opacity:1;stroke-miterlimit:10;" d="M 35.25 207.277344 L 44.8125 206.191406 "/>
<path style="fill:none;stroke-width:1.2;stroke-linecap:butt;stroke-linejoin:miter;stroke:rgb(0%,0%,100%);stroke-opacity:1;stroke-miterlimit:10;" d="M 44.8125 206.191406 L 54.375 205.109375 "/>
<path style="fill:none;stroke-width:1.2;stroke-linecap:butt;stroke-linejoin:miter;stroke:rgb(0%,0%,100%);stroke-opacity:1;stroke-miterlimit:10;" d="M 54.375 205.109375 L 58.21875 196.285156 "/>
<path style="fill:none;stroke-width:1.2;stroke-linecap:butt;stroke-linejoin:miter;stroke:rgb(0%,0%,0%);stroke-opacity:1;stroke-miterlimit:10;" d="M 58.21875 196.285156 L 62.058594 187.460938 "/>
<path style="fill:none;stroke-width:1.2;stroke-linecap:butt;stroke-linejoin:miter;stroke:rgb(0%,0%,0%);stroke-opacity:1;stroke-miterlimit:10;" d="M 65.816406 220.585938 L 60.09375 212.847656 "/>
<path style="fill:none;stroke-width:1.2;stroke-linecap:butt;stroke-linejoin:miter;stroke:rgb(0%,0%,100%);stroke-opacity:1;stroke-miterlimit:10;" d="M 60.09375 212.847656 L 54.375 205.109375 "/>
<path style=" stroke:none;fill-rule:nonzero;fill:rgb(100%,100%,100%);fill-opacity:1;" d="M 51.375 199.609375 L 58.375 199.609375 L 58.375 210.609375 L 51.375 210.609375 Z M 51.375 199.609375 "/>
<g style="fill:rgb(0%,0%,100%);fill-opacity:1;">
  <use xlink:href="#glyph0-1" x="51.375" y="208.272461"/>
</g>
<path style="fill:none;stroke-width:1.2;stroke-linecap:butt;stroke-linejoin:miter;stroke:rgb(0%,0%,0%);stroke-opacity:1;stroke-miterlimit:10;" d="M 62.058594 187.460938 L 81.183594 185.292969 "/>
<path style="fill:none;stroke-width:1.2;stroke-linecap:butt;stroke-linejoin:miter;stroke:rgb(0%,0%,0%);stroke-opacity:1;stroke-miterlimit:10;" d="M 81.183594 185.292969 L 86.90625 193.03125 "/>
<path style="fill:none;stroke-width:1.2;stroke-linecap:butt;stroke-linejoin:miter;stroke:rgb(0%,0%,100%);stroke-opacity:1;stroke-miterlimit:10;" d="M 86.90625 193.03125 L 92.625 200.773438 "/>
<path style="fill:none;stroke-width:1.2;stroke-linecap:butt;stroke-linejoin:miter;stroke:rgb(0%,0%,100%);stroke-opacity:1;stroke-miterlimit:10;" d="M 92.625 200.773438 L 88.78125 209.597656 "/>
<path style="fill:none;stroke-width:1.2;stroke-linecap:butt;stroke-linejoin:miter;stroke:rgb(0%,0%,0%);stroke-opacity:1;stroke-miterlimit:10;" d="M 88.78125 209.597656 L 84.941406 218.417969 "/>
<path style="fill:none;stroke-width:1.2;stroke-linecap:butt;stroke-linejoin:miter;stroke:rgb(0%,0%,100%);stroke-opacity:1;stroke-miterlimit:10;" d="M 92.625 200.773438 L 102.1875 199.6875 "/>
<path style="fill:none;stroke-width:1.2;stroke-linecap:butt;stroke-linejoin:miter;stroke:rgb(0%,0%,0%);stroke-opacity:1;stroke-miterlimit:10;" d="M 102.1875 199.6875 L 111.75 198.605469 "/>
<path style=" stroke:none;fill-rule:nonzero;fill:rgb(100%,100%,100%);fill-opacity:1;" d="M 89.625 195.273438 L 96.625 195.273438 L 96.625 206.273438 L 89.625 206.273438 Z M 89.625 195.273438 "/>
<g style="fill:rgb(0%,0%,100%);fill-opacity:1;">
  <use xlink:href="#glyph0-1" x="89.625" y="203.936523"/>
</g>
<path style="fill:none;stroke-width:1.2;stroke-linecap:butt;stroke-linejoin:miter;stroke:rgb(0%,0%,0%);stroke-opacity:1;stroke-miterlimit:10;" d="M 84.941406 218.417969 L 65.816406 220.585938 "/>
<path style="fill:none;stroke-width:1.2;stroke-linecap:butt;stroke-linejoin:miter;stroke:rgb(0%,0%,0%);stroke-opacity:1;stroke-miterlimit:10;" d="M 111.75 198.605469 L 117.46875 206.34375 "/>
<path style="fill:none;stroke-width:1.2;stroke-linecap:butt;stroke-linejoin:miter;stroke:rgb(0%,0%,100%);stroke-opacity:1;stroke-miterlimit:10;" d="M 117.46875 206.34375 L 123.191406 214.082031 "/>
<path style="fill:none;stroke-width:1.2;stroke-linecap:butt;stroke-linejoin:miter;stroke:rgb(0%,0%,0%);stroke-opacity:1;stroke-miterlimit:10;" d="M 116.535156 197.460938 L 121.113281 203.652344 "/>
<path style="fill:none;stroke-width:1.2;stroke-linecap:butt;stroke-linejoin:miter;stroke:rgb(0%,0%,100%);stroke-opacity:1;stroke-miterlimit:10;" d="M 121.113281 203.652344 L 125.6875 209.84375 "/>
<path style="fill:none;stroke-width:1.2;stroke-linecap:butt;stroke-linejoin:miter;stroke:rgb(0%,0%,100%);stroke-opacity:1;stroke-miterlimit:10;" d="M 119.433594 180.957031 L 115.59375 189.78125 "/>
<path style="fill:none;stroke-width:1.2;stroke-linecap:butt;stroke-linejoin:miter;stroke:rgb(0%,0%,0%);stroke-opacity:1;stroke-miterlimit:10;" d="M 115.59375 189.78125 L 111.75 198.605469 "/>
<path style="fill:none;stroke-width:1.2;stroke-linecap:butt;stroke-linejoin:miter;stroke:rgb(0%,0%,100%);stroke-opacity:1;stroke-miterlimit:10;" d="M 123.191406 214.082031 L 132.753906 213 "/>
<path style="fill:none;stroke-width:1.2;stroke-linecap:butt;stroke-linejoin:miter;stroke:rgb(0%,0%,0%);stroke-opacity:1;stroke-miterlimit:10;" d="M 132.753906 213 L 142.316406 211.914062 "/>
<path style=" stroke:none;fill-rule:nonzero;fill:rgb(100%,100%,100%);fill-opacity:1;" d="M 120.191406 208.582031 L 127.191406 208.582031 L 127.191406 219.582031 L 120.191406 219.582031 Z M 120.191406 208.582031 "/>
<g style="fill:rgb(0%,0%,100%);fill-opacity:1;">
  <use xlink:href="#glyph0-1" x="120.191406" y="217.245117"/>
</g>
<path style="fill:none;stroke-width:1.2;stroke-linecap:butt;stroke-linejoin:miter;stroke:rgb(0%,0%,0%);stroke-opacity:1;stroke-miterlimit:10;" d="M 142.316406 211.914062 L 150 194.265625 "/>
<path style="fill:none;stroke-width:1.2;stroke-linecap:butt;stroke-linejoin:miter;stroke:rgb(0%,0%,0%);stroke-opacity:1;stroke-miterlimit:10;" d="M 138.929688 208.339844 L 145.078125 194.222656 "/>
<path style="fill:none;stroke-width:1.2;stroke-linecap:butt;stroke-linejoin:miter;stroke:rgb(0%,0%,0%);stroke-opacity:1;stroke-miterlimit:10;" d="M 150 194.265625 L 138.558594 178.789062 "/>
<path style="fill:none;stroke-width:1.2;stroke-linecap:butt;stroke-linejoin:miter;stroke:rgb(0%,0%,100%);stroke-opacity:1;stroke-miterlimit:10;" d="M 169.125 192.097656 L 159.5625 193.183594 "/>
<path style="fill:none;stroke-width:1.2;stroke-linecap:butt;stroke-linejoin:miter;stroke:rgb(0%,0%,0%);stroke-opacity:1;stroke-miterlimit:10;" d="M 159.5625 193.183594 L 150 194.265625 "/>
<path style="fill:none;stroke-width:1.2;stroke-linecap:butt;stroke-linejoin:miter;stroke:rgb(0%,0%,0%);stroke-opacity:1;stroke-miterlimit:10;" d="M 138.558594 178.789062 L 128.996094 179.875 "/>
<path style="fill:none;stroke-width:1.2;stroke-linecap:butt;stroke-linejoin:miter;stroke:rgb(0%,0%,100%);stroke-opacity:1;stroke-miterlimit:10;" d="M 128.996094 179.875 L 119.433594 180.957031 "/>
<path style="fill:none;stroke-width:1.2;stroke-linecap:butt;stroke-linejoin:miter;stroke:rgb(0%,0%,0%);stroke-opacity:1;stroke-miterlimit:10;" d="M 137.15625 183.503906 L 129.507812 184.375 "/>
<path style="fill:none;stroke-width:1.2;stroke-linecap:butt;stroke-linejoin:miter;stroke:rgb(0%,0%,100%);stroke-opacity:1;stroke-miterlimit:10;" d="M 129.507812 184.375 L 121.855469 185.242188 "/>
<path style="fill:none;stroke-width:1.2;stroke-linecap:butt;stroke-linejoin:miter;stroke:rgb(0%,0%,0%);stroke-opacity:1;stroke-miterlimit:10;" d="M 138.558594 178.789062 L 142.402344 169.964844 "/>
<path style="fill:none;stroke-width:1.2;stroke-linecap:butt;stroke-linejoin:miter;stroke:rgb(0%,0%,100%);stroke-opacity:1;stroke-miterlimit:10;" d="M 142.402344 169.964844 L 146.246094 161.140625 "/>
<path style=" stroke:none;fill-rule:nonzero;fill:rgb(100%,100%,100%);fill-opacity:1;" d="M 116.433594 175.457031 L 123.433594 175.457031 L 123.433594 186.457031 L 116.433594 186.457031 Z M 116.433594 175.457031 "/>
<g style="fill:rgb(0%,0%,100%);fill-opacity:1;">
  <use xlink:href="#glyph0-1" x="116.433594" y="184.120117"/>
</g>
<path style="fill:none;stroke-width:1.2;stroke-linecap:butt;stroke-linejoin:miter;stroke:rgb(0%,0%,100%);stroke-opacity:1;stroke-miterlimit:10;" d="M 146.246094 161.140625 L 155.808594 160.058594 "/>
<path style="fill:none;stroke-width:1.2;stroke-linecap:butt;stroke-linejoin:miter;stroke:rgb(0%,0%,0%);stroke-opacity:1;stroke-miterlimit:10;" d="M 155.808594 160.058594 L 165.371094 158.972656 "/>
<path style="fill:none;stroke-width:1.2;stroke-linecap:butt;stroke-linejoin:miter;stroke:rgb(0%,0%,100%);stroke-opacity:1;stroke-miterlimit:10;" d="M 146.246094 161.140625 L 140.523438 153.402344 "/>
<path style="fill:none;stroke-width:1.2;stroke-linecap:butt;stroke-linejoin:miter;stroke:rgb(0%,0%,0%);stroke-opacity:1;stroke-miterlimit:10;" d="M 140.523438 153.402344 L 134.804688 145.664062 "/>
<path style=" stroke:none;fill-rule:nonzero;fill:rgb(100%,100%,100%);fill-opacity:1;" d="M 143.246094 155.640625 L 150.246094 155.640625 L 150.246094 166.640625 L 143.246094 166.640625 Z M 143.246094 155.640625 "/>
<g style="fill:rgb(0%,0%,100%);fill-opacity:1;">
  <use xlink:href="#glyph0-1" x="143.246094" y="164.303711"/>
</g>
<path style="fill:none;stroke-width:1.2;stroke-linecap:butt;stroke-linejoin:miter;stroke:rgb(0%,0%,0%);stroke-opacity:1;stroke-miterlimit:10;" d="M 167.445312 159.878906 L 171.289062 151.054688 "/>
<path style="fill:none;stroke-width:1.2;stroke-linecap:butt;stroke-linejoin:miter;stroke:rgb(100%,0%,0%);stroke-opacity:1;stroke-miterlimit:10;" d="M 171.289062 151.054688 L 175.128906 142.230469 "/>
<path style="fill:none;stroke-width:1.2;stroke-linecap:butt;stroke-linejoin:miter;stroke:rgb(0%,0%,0%);stroke-opacity:1;stroke-miterlimit:10;" d="M 163.292969 158.070312 L 167.136719 149.246094 "/>
<path style="fill:none;stroke-width:1.2;stroke-linecap:butt;stroke-linejoin:miter;stroke:rgb(100%,0%,0%);stroke-opacity:1;stroke-miterlimit:10;" d="M 167.136719 149.246094 L 170.976562 140.421875 "/>
<path style="fill:none;stroke-width:1.2;stroke-linecap:butt;stroke-linejoin:miter;stroke:rgb(0%,0%,0%);stroke-opacity:1;stroke-miterlimit:10;" d="M 165.371094 158.972656 L 176.808594 174.453125 "/>
<path style=" stroke:none;fill-rule:nonzero;fill:rgb(100%,100%,100%);fill-opacity:1;" d="M 169.054688 135.828125 L 177.054688 135.828125 L 177.054688 146.828125 L 169.054688 146.828125 Z M 169.054688 135.828125 "/>
<g style="fill:rgb(100%,0%,0%);fill-opacity:1;">
  <use xlink:href="#glyph0-2" x="169.054688" y="144.491211"/>
</g>
<path style="fill:none;stroke-width:1.2;stroke-linecap:butt;stroke-linejoin:miter;stroke:rgb(0%,0%,0%);stroke-opacity:1;stroke-miterlimit:10;" d="M 176.808594 174.453125 L 172.96875 183.277344 "/>
<path style="fill:none;stroke-width:1.2;stroke-linecap:butt;stroke-linejoin:miter;stroke:rgb(0%,0%,100%);stroke-opacity:1;stroke-miterlimit:10;" d="M 172.96875 183.277344 L 169.125 192.097656 "/>
<path style="fill:none;stroke-width:1.2;stroke-linecap:butt;stroke-linejoin:miter;stroke:rgb(0%,0%,0%);stroke-opacity:1;stroke-miterlimit:10;" d="M 171.890625 174.410156 L 168.816406 181.46875 "/>
<path style="fill:none;stroke-width:1.2;stroke-linecap:butt;stroke-linejoin:miter;stroke:rgb(0%,0%,100%);stroke-opacity:1;stroke-miterlimit:10;" d="M 168.816406 181.46875 L 165.742188 188.527344 "/>
<path style="fill:none;stroke-width:1.2;stroke-linecap:butt;stroke-linejoin:miter;stroke:rgb(0%,0%,0%);stroke-opacity:1;stroke-miterlimit:10;" d="M 176.808594 174.453125 L 195.933594 172.285156 "/>
<path style=" stroke:none;fill-rule:nonzero;fill:rgb(100%,100%,100%);fill-opacity:1;" d="M 166.125 186.597656 L 173.125 186.597656 L 173.125 197.597656 L 166.125 197.597656 Z M 166.125 186.597656 "/>
<g style="fill:rgb(0%,0%,100%);fill-opacity:1;">
  <use xlink:href="#glyph0-1" x="166.125" y="195.260742"/>
</g>
<path style="fill:none;stroke-width:1.2;stroke-linecap:butt;stroke-linejoin:miter;stroke:rgb(0%,0%,0%);stroke-opacity:1;stroke-miterlimit:10;" d="M 195.933594 172.285156 L 207.375 187.761719 "/>
<path style="fill:none;stroke-width:1.2;stroke-linecap:butt;stroke-linejoin:miter;stroke:rgb(0%,0%,0%);stroke-opacity:1;stroke-miterlimit:10;" d="M 207.375 187.761719 L 226.5 185.59375 "/>
<path style="fill:none;stroke-width:1.2;stroke-linecap:butt;stroke-linejoin:miter;stroke:rgb(0%,0%,0%);stroke-opacity:1;stroke-miterlimit:10;" d="M 226.5 185.59375 L 237.941406 201.074219 "/>
<path style="fill:none;stroke-width:1.2;stroke-linecap:butt;stroke-linejoin:miter;stroke:rgb(0%,0%,0%);stroke-opacity:1;stroke-miterlimit:10;" d="M 231.285156 184.449219 L 240.4375 196.832031 "/>
<path style="fill:none;stroke-width:1.2;stroke-linecap:butt;stroke-linejoin:miter;stroke:rgb(0%,0%,0%);stroke-opacity:1;stroke-miterlimit:10;" d="M 234.183594 167.949219 L 226.5 185.59375 "/>
<path style="fill:none;stroke-width:1.2;stroke-linecap:butt;stroke-linejoin:miter;stroke:rgb(0%,0%,0%);stroke-opacity:1;stroke-miterlimit:10;" d="M 237.941406 201.074219 L 257.066406 198.90625 "/>
<path style="fill:none;stroke-width:1.2;stroke-linecap:butt;stroke-linejoin:miter;stroke:rgb(0%,0%,0%);stroke-opacity:1;stroke-miterlimit:10;" d="M 257.066406 198.90625 L 264.75 181.257812 "/>
<path style="fill:none;stroke-width:1.2;stroke-linecap:butt;stroke-linejoin:miter;stroke:rgb(0%,0%,0%);stroke-opacity:1;stroke-miterlimit:10;" d="M 253.679688 195.332031 L 259.828125 181.214844 "/>
<path style="fill:none;stroke-width:1.2;stroke-linecap:butt;stroke-linejoin:miter;stroke:rgb(0%,0%,0%);stroke-opacity:1;stroke-miterlimit:10;" d="M 264.75 181.257812 L 253.308594 165.78125 "/>
<path style="fill:none;stroke-width:1.2;stroke-linecap:butt;stroke-linejoin:miter;stroke:rgb(0%,0%,0%);stroke-opacity:1;stroke-miterlimit:10;" d="M 253.308594 165.78125 L 234.183594 167.949219 "/>
<path style="fill:none;stroke-width:1.2;stroke-linecap:butt;stroke-linejoin:miter;stroke:rgb(0%,0%,0%);stroke-opacity:1;stroke-miterlimit:10;" d="M 251.90625 170.496094 L 236.605469 172.230469 "/>
<path style="fill:none;stroke-width:1.2;stroke-linecap:butt;stroke-linejoin:miter;stroke:rgb(0%,0%,0%);stroke-opacity:1;stroke-miterlimit:10;" d="M 134.804688 145.664062 L 142.488281 128.015625 "/>
<path style="fill:none;stroke-width:1.2;stroke-linecap:butt;stroke-linejoin:miter;stroke:rgb(0%,0%,0%);stroke-opacity:1;stroke-miterlimit:10;" d="M 142.488281 128.015625 L 131.046875 112.539062 "/>
<path style="fill:none;stroke-width:1.2;stroke-linecap:butt;stroke-linejoin:miter;stroke:rgb(0%,0%,0%);stroke-opacity:1;stroke-miterlimit:10;" d="M 131.046875 112.539062 L 138.734375 94.890625 "/>
<path style="fill:none;stroke-width:1.2;stroke-linecap:butt;stroke-linejoin:miter;stroke:rgb(0%,0%,0%);stroke-opacity:1;stroke-miterlimit:10;" d="M 127.664062 108.964844 L 133.8125 94.847656 "/>
<path style="fill:none;stroke-width:1.2;stroke-linecap:butt;stroke-linejoin:miter;stroke:rgb(0%,0%,0%);stroke-opacity:1;stroke-miterlimit:10;" d="M 111.921875 114.707031 L 131.046875 112.539062 "/>
<path style="fill:none;stroke-width:1.2;stroke-linecap:butt;stroke-linejoin:miter;stroke:rgb(0%,0%,0%);stroke-opacity:1;stroke-miterlimit:10;" d="M 138.734375 94.890625 L 127.292969 79.414062 "/>
<path style="fill:none;stroke-width:1.2;stroke-linecap:butt;stroke-linejoin:miter;stroke:rgb(0%,0%,0%);stroke-opacity:1;stroke-miterlimit:10;" d="M 127.292969 79.414062 L 108.167969 81.582031 "/>
<path style="fill:none;stroke-width:1.2;stroke-linecap:butt;stroke-linejoin:miter;stroke:rgb(0%,0%,0%);stroke-opacity:1;stroke-miterlimit:10;" d="M 125.890625 84.128906 L 110.589844 85.863281 "/>
<path style="fill:none;stroke-width:1.2;stroke-linecap:butt;stroke-linejoin:miter;stroke:rgb(0%,0%,0%);stroke-opacity:1;stroke-miterlimit:10;" d="M 108.167969 81.582031 L 100.484375 99.226562 "/>
<path style="fill:none;stroke-width:1.2;stroke-linecap:butt;stroke-linejoin:miter;stroke:rgb(0%,0%,0%);stroke-opacity:1;stroke-miterlimit:10;" d="M 100.484375 99.226562 L 111.921875 114.707031 "/>
<path style="fill:none;stroke-width:1.2;stroke-linecap:butt;stroke-linejoin:miter;stroke:rgb(0%,0%,0%);stroke-opacity:1;stroke-miterlimit:10;" d="M 105.269531 98.082031 L 114.421875 110.464844 "/>
</g>
</svg>

<svg xmlns="http://www.w3.org/2000/svg" xmlns:xlink="http://www.w3.org/1999/xlink" width="300pt" height="300pt" viewBox="0 0 300 300"><defs><symbol overflow="visible"><path d="M.453 1.594v-7.938h4.5v7.938zm.5-.5h3.5v-6.938h-3.5zm0 0"/></symbol><symbol overflow="visible" id="a"><path d="M.89-6.563H2.08l2.906 5.485v-5.484h.86V0H4.656L1.75-5.484V0H.89zm0 0"/></symbol><symbol overflow="visible" id="b"><path d="M3.547-5.953c-.65 0-1.164.242-1.547.72-.375.48-.563 1.13-.563 1.952 0 .835.188 1.49.563 1.967.383.48.898.72 1.547.72.644 0 1.156-.24 1.53-.72.376-.476.564-1.132.564-1.968 0-.822-.187-1.474-.562-1.954-.375-.477-.887-.72-1.53-.72zm0-.734c.914 0 1.648.312 2.203.937.55.617.828 1.438.828 2.47 0 1.042-.277 1.87-.828 2.483-.555.617-1.29.922-2.203.922-.93 0-1.668-.305-2.22-.922C.774-1.41.5-2.237.5-3.28c0-1.033.273-1.853.828-2.47.55-.625 1.29-.938 2.22-.938zm0 0"/></symbol></defs><g><path fill="#fff" d="M0 0h300v300H0z"/><path d="M35.25 207.277l9.563-1.086" stroke-width="1.2" stroke="#000" stroke-miterlimit="10" fill="none"/><path d="M44.813 206.19l9.562-1.08M54.375 205.11l3.844-8.825" stroke-width="1.2" stroke="#00f" stroke-miterlimit="10" fill="none"/><path d="M58.22 196.285l3.84-8.824M65.816 220.586l-5.722-7.738" stroke-width="1.2" stroke="#000" stroke-miterlimit="10" fill="none"/><path d="M60.094 212.848l-5.72-7.74" stroke-width="1.2" stroke="#00f" stroke-miterlimit="10" fill="none"/><path d="M51.375 199.61h7v11h-7zm0 0" fill="#fff"/><use xlink:href="#a" x="51.375" y="208.272" fill="#00f"/><path d="M62.06 187.46l19.124-2.167M81.184 185.293l5.722 7.738" stroke-width="1.2" stroke="#000" stroke-miterlimit="10" fill="none"/><path d="M86.906 193.03l5.72 7.743M92.625 200.773l-3.844 8.825" stroke-width="1.2" stroke="#00f" stroke-miterlimit="10" fill="none"/><path d="M88.78 209.598l-3.84 8.82" stroke-width="1.2" stroke="#000" stroke-miterlimit="10" fill="none"/><path d="M92.625 200.773l9.563-1.085" stroke-width="1.2" stroke="#00f" stroke-miterlimit="10" fill="none"/><path d="M102.188 199.688l9.562-1.083" stroke-width="1.2" stroke="#000" stroke-miterlimit="10" fill="none"/><path d="M89.625 195.273h7v11h-7zm0 0" fill="#fff"/><use xlink:href="#a" x="89.625" y="203.937" fill="#00f"/><path d="M84.94 218.418l-19.124 2.168M111.75 198.605l5.72 7.74" stroke-width="1.2" stroke="#000" stroke-miterlimit="10" fill="none"/><path d="M117.47 206.344l5.72 7.738" stroke-width="1.2" stroke="#00f" stroke-miterlimit="10" fill="none"/><path d="M116.535 197.46l4.578 6.192" stroke-width="1.2" stroke="#000" stroke-miterlimit="10" fill="none"/><path d="M121.113 203.652l4.575 6.192M119.434 180.957l-3.84 8.824" stroke-width="1.2" stroke="#00f" stroke-miterlimit="10" fill="none"/><path d="M115.594 189.78l-3.844 8.825" stroke-width="1.2" stroke="#000" stroke-miterlimit="10" fill="none"/><path d="M123.19 214.082l9.564-1.082" stroke-width="1.2" stroke="#00f" stroke-miterlimit="10" fill="none"/><path d="M132.754 213l9.562-1.086" stroke-width="1.2" stroke="#000" stroke-miterlimit="10" fill="none"/><path d="M120.19 208.582h7v11h-7zm0 0" fill="#fff"/><use xlink:href="#a" x="120.191" y="217.245" fill="#00f"/><path d="M142.316 211.914L150 194.266M138.93 208.34l6.148-14.117M150 194.266l-11.44-15.477" stroke-width="1.2" stroke="#000" stroke-miterlimit="10" fill="none"/><path d="M169.125 192.098l-9.563 1.086" stroke-width="1.2" stroke="#00f" stroke-miterlimit="10" fill="none"/><path d="M159.563 193.184L150 194.266M138.56 178.79l-9.564 1.085" stroke-width="1.2" stroke="#000" stroke-miterlimit="10" fill="none"/><path d="M128.996 179.875l-9.562 1.082" stroke-width="1.2" stroke="#00f" stroke-miterlimit="10" fill="none"/><path d="M137.156 183.504l-7.648.87" stroke-width="1.2" stroke="#000" stroke-miterlimit="10" fill="none"/><path d="M129.508 184.375l-7.653.867" stroke-width="1.2" stroke="#00f" stroke-miterlimit="10" fill="none"/><path d="M138.56 178.79l3.842-8.825" stroke-width="1.2" stroke="#000" stroke-miterlimit="10" fill="none"/><path d="M142.402 169.965l3.844-8.824" stroke-width="1.2" stroke="#00f" stroke-miterlimit="10" fill="none"/><path d="M116.434 175.457h7v11h-7zm0 0" fill="#fff"/><use xlink:href="#a" x="116.434" y="184.12" fill="#00f"/><path d="M146.246 161.14l9.563-1.08" stroke-width="1.2" stroke="#00f" stroke-miterlimit="10" fill="none"/><path d="M155.81 160.06l9.56-1.087" stroke-width="1.2" stroke="#000" stroke-miterlimit="10" fill="none"/><path d="M146.246 161.14l-5.723-7.738" stroke-width="1.2" stroke="#00f" stroke-miterlimit="10" fill="none"/><path d="M140.523 153.402l-5.718-7.738" stroke-width="1.2" stroke="#000" stroke-miterlimit="10" fill="none"/><path d="M143.246 155.64h7v11h-7zm0 0" fill="#fff"/><use xlink:href="#a" x="143.246" y="164.304" fill="#00f"/><path d="M167.445 159.88l3.844-8.825" stroke-width="1.2" stroke="#000" stroke-miterlimit="10" fill="none"/><path d="M171.29 151.055l3.84-8.825" stroke-width="1.2" stroke="#f00" stroke-miterlimit="10" fill="none"/><path d="M163.293 158.07l3.844-8.824" stroke-width="1.2" stroke="#000" stroke-miterlimit="10" fill="none"/><path d="M167.137 149.246l3.84-8.824" stroke-width="1.2" stroke="#f00" stroke-miterlimit="10" fill="none"/><path d="M165.37 158.973l11.44 15.48" stroke-width="1.2" stroke="#000" stroke-miterlimit="10" fill="none"/><path d="M169.055 135.828h8v11h-8zm0 0" fill="#fff"/><use xlink:href="#b" x="169.055" y="144.491" fill="#f00"/><path d="M176.81 174.453l-3.84 8.824" stroke-width="1.2" stroke="#000" stroke-miterlimit="10" fill="none"/><path d="M172.97 183.277l-3.845 8.82" stroke-width="1.2" stroke="#00f" stroke-miterlimit="10" fill="none"/><path d="M171.89 174.41l-3.074 7.06" stroke-width="1.2" stroke="#000" stroke-miterlimit="10" fill="none"/><path d="M168.816 181.47l-3.074 7.057" stroke-width="1.2" stroke="#00f" stroke-miterlimit="10" fill="none"/><path d="M176.81 174.453l19.124-2.168" stroke-width="1.2" stroke="#000" stroke-miterlimit="10" fill="none"/><path d="M166.125 186.598h7v11h-7zm0 0" fill="#fff"/><use xlink:href="#a" x="166.125" y="195.261" fill="#00f"/><path d="M195.934 172.285l11.44 15.477M207.375 187.762l19.125-2.168M226.5 185.594l11.44 15.48M231.285 184.45l9.153 12.382M234.184 167.95l-7.684 17.644M237.94 201.074l19.126-2.168M257.066 198.906l7.684-17.648M253.68 195.332l6.148-14.117M264.75 181.258l-11.44-15.477M253.31 165.78l-19.126 2.17M251.906 170.496l-15.3 1.734M134.805 145.664l7.683-17.648M142.488 128.016l-11.44-15.477M131.047 112.54l7.687-17.65M127.664 108.965l6.148-14.117M111.922 114.707l19.125-2.168M138.734 94.89l-11.44-15.476M127.293 79.414l-19.125 2.168M125.89 84.13l-15.3 1.733M108.168 81.582l-7.684 17.645M100.484 99.227l11.438 15.48M105.27 98.082l9.152 12.383" stroke-width="1.2" stroke="#000" stroke-miterlimit="10" fill="none"/></g></svg>
